X: 44
T:Fermoy Lasses
R:Reel
M:C|
L:1/8
Q:1/2=112
K:G
BA|:GE~E2 BE~E2|GE~E2 BcBA|GE~E2 BE~E2|AFDF AcBA|
GE~E2 BE~E2|GE~E2 B2BA|~G3F GBdB|AFDF AcBA:|
G2 BG dGBA|G2Bd efg2|~G3B dGBG|AFDF AcBA|
G2 (3BAG dGBA|G2Bd efg2|afge dedB|AFDF AcBA:|
